X:730
T:Put Me In the Big Chest
S:Sessions, Laurie's Bar, Glasgow 18/10/04
Z:Nigel Gatherer
L:1/8
M:4/4
K:A
z | EFAB c2 cf | ecBA  F2 AF | EFAB cBcf | ecBc A3      :|
c | efec eAAc  | efec  BABc  | efec efaf | ecBc A3      :|
z | EFAB c2 cB | c2 cB ce f2 | EFAB cBcf | ecBc A3      :|
c | efec eAAc  | efec  BABc  | efec efaf | ecBc A/A/A A :|
<end>
<start>
